X: 7
T: The Frog In The Well
R: jig
M: 6/8
L: 1/8
K: Emin
E2F GFE|BEF GFE|D2E FED|ADD FED|
E2F GFE|BEF G2A|BdB BGF|1 GEE E3:|2 GEE E2B||
|:efe B2d|e2f gfe|fdd Add|fef agf|
efe B2d|e2f gfe|fdB AGF|1 GEE E3:|2 GEE E2D||


Tune 1395	Setting 29998

